dist/svg/list-ul.svg

<!-- Generated by Trend Micro Style Portal -->
<svg version="1.1" xmlns="http://www.w3.org/2000/svg" width="16" height="16" viewBox="0 0 16 16">
  <title>list-ul</title>
  <path fill="rgb(34,34,34)" d="M14 4h-9v-2h9zM4 3v0c0-0.552-0.448-1-1-1v0 0c-0.552 0-1 0.448-1 1v0 0c0 0.552 0.448 1 1 1v0 0c0.552 0 1-0.448 1-1v0zM4 8v0c0-0.552-0.448-1-1-1v0 0c-0.552 0-1 0.448-1 1v0 0c0 0.552 0.448 1 1 1v0 0c0.552 0 1-0.448 1-1v0zM4 13v0c0-0.552-0.448-1-1-1v0 0c-0.552 0-1 0.448-1 1v0 0c0 0.552 0.448 1 1 1v0 0c0.552 0 1-0.448 1-1v0zM14 7h-9v2h9zM14 12h-9v2h9z"></path>
</svg>

<svg width="16" height="16" viewBox="0 0 16 16" fill="rgb(34, 34, 34)" xmlns="http://www.w3.org/2000/svg"><title>list-UL</title><path d="M14 4H5V2H14V4ZM4 3C4 2.448 3.552 2 3 2C2.448 2 2 2.448 2 3C2 3.552 2.448 4 3 4C3.552 4 4 3.552 4 3ZM4 8C4 7.448 3.552 7 3 7C2.448 7 2 7.448 2 8C2 8.552 2.448 9 3 9C3.552 9 4 8.552 4 8ZM4 13C4 12.448 3.552 12 3 12C2.448 12 2 12.448 2 13C2 13.552 2.448 14 3 14C3.552 14 4 13.552 4 13ZM14 7H5V9H14V7ZM14 12H5V14H14V12Z" fill="rgb(34, 34, 34)" fill-opacity="1.00"/></svg>
